src/static/logos/mesosphere.svg

<?xml version="1.0" encoding="UTF-8" standalone="no"?>
<svg width="256px" height="187px" viewBox="0 0 256 187" version="1.1" xmlns="http://www.w3.org/2000/svg" xmlns:xlink="http://www.w3.org/1999/xlink" preserveAspectRatio="xMidYMid">
    <defs>
        <linearGradient x1="0.0238151941%" y1="49.9809073%" x2="100.04763%" y2="49.9809073%" id="linearGradient-1">
            <stop stop-color="#9351E5" offset="0%"></stop>
            <stop stop-color="#EF468B" offset="100%"></stop>
        </linearGradient>
    </defs>
    <g>
        <path d="M128.09145,186.802572 C124.067635,186.802572 120.287688,184.607764 117.666111,180.827816 L75.9647535,119.190283 L17.2536318,155.343653 C14.9368897,156.806859 12.5591808,157.477495 10.2424387,157.477495 C5.30412003,157.477495 -2.84217094e-14,153.819481 -2.84217094e-14,145.710884 L-2.84217094e-14,15.973327 C-2.84217094e-14,10.1205049 3.29221243,4.63348416 8.47439867,1.8899738 C10.669207,0.182900691 13.7785187,0 16.0342939,0 L240.08764,0 L240.08764,0 L240.08764,0 L240.08764,0 C243.075018,0 245.39176,0.548702072 247.098833,1.64610622 C252.524887,4.32864968 256,9.93760419 256,15.973327 L256,115.53227 C256,118.885449 255.02453,121.872827 253.134556,124.067635 C251.122648,126.445344 248.196237,127.786616 244.964992,127.786616 L244.964992,127.786616 C242.953084,127.786616 240.819243,127.298881 238.746368,126.262443 L191.131222,102.790188 L138.394856,180.766849 C135.895213,184.607764 132.115266,186.802572 128.09145,186.802572 L128.09145,186.802572 Z M85.109788,113.581329 L126.506311,174.792093 C127.11598,175.706597 127.725649,176.072398 128.09145,176.072398 C128.457252,176.072398 129.066921,175.64563 129.67659,174.792093 L181.620386,98.0347702 L142.05287,78.5253632 L85.109788,113.581329 L85.109788,113.581329 Z M10.3034056,146.869255 L10.3034056,152.234342 L10.3034056,146.869255 L10.3034056,146.869255 L10.3034056,146.869255 Z M10.7301739,22.6796856 L10.7301739,145.77185 C10.7301739,146.198619 10.7911407,146.503453 10.7911407,146.747321 C11.0350083,146.686354 11.2788759,146.503453 11.6446773,146.320553 L69.9899976,110.350083 L10.7301739,22.6796856 L10.7301739,22.6796856 Z M197.288878,93.8890212 L243.562753,116.690641 C244.843058,117.30031 245.208859,117.117409 245.208859,117.117409 C245.208859,117.056442 245.452727,116.568707 245.452727,115.53227 L245.452727,22.6796856 L197.288878,93.8890212 L197.288878,93.8890212 Z M21.0945463,18.9607049 L79.1350322,104.741129 L130.713027,72.9773756 L21.0945463,18.9607049 L21.0945463,18.9607049 Z M152.722077,71.9409383 L187.595142,89.1336032 L232.466778,22.8016194 L152.722077,71.9409383 L152.722077,71.9409383 Z M28.2886402,10.6082401 L141.443201,66.3319838 L231.979043,10.6082401 L28.2886402,10.6082401 L28.2886402,10.6082401 Z" fill="url(#linearGradient-1)"></path>
    </g>
</svg>

<svg width="256" height="187" xmlns="http://www.w3.org/2000/svg" preserveAspectRatio="xMidYMid"><defs><linearGradient x1=".024%" y1="49.981%" x2="100.048%" y2="49.981%" id="a"><stop stop-color="#9351E5" offset="0%"/><stop stop-color="#EF468B" offset="100%"/></linearGradient></defs><path d="M128.091 186.803c-4.023 0-7.803-2.195-10.425-5.975L75.965 119.19l-58.711 36.154c-2.317 1.463-4.695 2.133-7.012 2.133C5.304 157.477 0 153.82 0 145.711V15.973C0 10.121 3.292 4.633 8.474 1.89 10.67.183 13.78 0 16.034 0h224.054c2.987 0 5.304.549 7.01 1.646C252.526 4.33 256 9.938 256 15.973v99.56c0 3.352-.975 6.34-2.865 8.535-2.012 2.377-4.939 3.719-8.17 3.719-2.012 0-4.146-.488-6.219-1.525l-47.615-23.472-52.736 77.977c-2.5 3.84-6.28 6.036-10.304 6.036zM85.11 113.58l41.396 61.211c.61.915 1.22 1.28 1.585 1.28.366 0 .976-.426 1.586-1.28l51.943-76.757-39.567-19.51L85.11 113.58zm-74.807 33.29v5.365-5.365zm.427-124.19v123.093c0 .427.061.731.061.975.244-.06.488-.244.854-.426l58.345-35.97L10.73 22.68zm186.56 71.21l46.274 22.802c1.28.61 1.646.426 1.646.426 0-.06.244-.548.244-1.585V22.68L197.29 93.889zM21.095 18.961l58.04 85.78 51.578-31.764L21.095 18.961zm131.627 52.98l34.873 17.193 44.872-66.332-79.745 49.139zM28.29 10.608l113.154 55.724 90.536-55.724H28.289z" fill="url(#a)"/></svg>
